X: 150
T:Muiñeira (de Lugo)
M:6/8
L:1/8
Q:150
C:Trad
S:Cancionero de Bal y Gay, nº597
R:Muiñeira
K:C
G>GG |: G>FE D>EF |G>AG A>AA |A>GG cGG|
F2E C>ED | C>EE E>DC |A2F C>ED | C>DC B,>CD |
E2C C>ED |C>EE E>DC | A2F C>ED | C>DC B,>CD|1
C2C G>GG :|2 C2 C A>AA 
K:F
|: c>Ac c>BA| B2G G>GG | 
B>GB B>AG | A2F A>AA | A>DE FGA | c2B B>cB|
ABA GAG |1 F2F A>AA :|2 F2F ||

